X: 12812
T: Feed The Ducks
R: jig
M: 6/8
K: Amajor
~E3 AEc|BAF FEF|ABA ~f2e|ecA BAF|
~E3 AEc|BAF FEF|ABA ~f2e|1 ecA A3:|2 ecA Bce||
~f3 fec|~f3 acf|ecA EFD|
[1 CEA cea|~f3 fec|~f3 acf|ecA ~f3|eAB cde:|
[2 CEA cAB|ABA ~f2e|ABA ~f2e|ABA ~f2e|e2c BAF||

